X:1
T:James Gibb editions
T:Christian, dost thou see them? - Barnby
%%score [ ( 1 2 3 ) ( 4 5 6 ) ]
L:1/8
Q:1/4=104
M:4/4
K:Bb
V:1 treble nm="Midi_74"
V:2 treble 
V:3 treble 
V:4 bass nm="Midi_74"
V:5 bass 
V:6 bass 
V:1
"^Christian, dost thou see them?""^St Andrew of Crete (65. 65. D)""^Joseph Barnby\n(1838-96)""^John Mason Neale\n(1818-66)"!mf!!<(! G2 G2 A2 B2!<)! | %1
!>(! B4 A4!>)! || A2 ^F2 G2 A2 |"^i" B8 || c2 B2 A2 G2 | ^F4 D4 || %6
[Q:1/4=101]!p! E2[Q:1/4=97] C2[Q:1/4=93] D2[Q:1/4=89] E2 |[Q:1/4=88] !fermata!D8 || %8
[M:4/4][Q:1/4=88]!ff![Q:1/4=88] d2 =B2 G2 d2 | =e4 e4 || c2 c2 d2 =e2 | d8 || d2 d2 c2 =f2 | %13
 =e4 d4 || c2 =BA A3 G | G8 || G4 G4 |] %17
V:2
 D2 D2 D2 D2 | E4 E4 || D2 D2 D2 D2 | D8 || C2 D2 E2 =E2 | D4 D4 || E2 C2 D2 E2 | D8 || %8
[M:4/4] G2 G2 G2 G2 | =E4 E4 || =E2 E2 E2 E2 | A8 || G2 G2 G2 G2 | (G2 ^F2) G4 || (G^F) G2 G2 F2 | %15
 G8 || =E4 D4 |] %17
V:3
 x8 | x8 || x8 | x8 || x8 | x8 || x8 | x8 ||[M:4/4] D2 x2 D2 D2 | [G=B]4 [GB]4 || A2 A2 A2 A2 | %11
 D8 || D2 D2 x2 =F2 | =E4 D4 || x6 D2 | D8 || x8 |] %17
V:4
 B,2 B,2 B,2 B,2 | C4 C4 || C2 C2 C2 C2 | B,8 || G,2 G,2 C2 B,2 | A,4 D,4 || %6
"^rit." E,2 C,2 D,2 E,2 | !fermata!D,8 || %8
[M:4/4]"^1 Christian, dost thou see them\non the holy ground,\nhow the pow'rs of darkness\nrage thy steps around?\nChristian, up and smite them,\ncounting gain but loss,\nin the strength that cometh\nby the holy cross.\n\n2 Christian, dost thou feel them,\nhow they work within,\nstriving, tempting, luring,\ngoading into sin?\nChristian, never tremble;\nnever be downcast;\ngird thee for the battle,\nwatch and pray and fast." =B,2 D2 B,2 B,2 | %9
 =B,4 B,4 || C2 C2 C2 C2 | C8 || %12
 =B,2 B,2"^3 Christian, dost thou hear them,\nhow they speak thee fair?\n\"Always fast and vigil?\nAlways watch and prayer?\"\nChristian, answer boldly,\n\"While I breathe I pray!\"\nPeace shall follow battle,\nnight shall end in day.\n\n4 Hear the words of Jesus:\n\"O my servant true:\nthou art very weary -\nI was weary too;\nbut that toil shall make thee\nsome day all mine own,\nand the end of sorrow\nshall be near my throne.\"" C2 B,2 | %13
 C4 D4 || =EA, =B,C D2 C2 | =B,8 || C4 =B,4 |] %17
V:5
 G,2 G,2 G,2 G,2 | G,4 G,4 || ^F,2 D,2 =E,2 F,2 | G,8 || E,2 B,,2 C,2 ^C,2 | D,4 D,4 || %6
 E,2 C,2 D,2 E,2 | D,8 ||[M:4/4] x8 | x8 || A,2 A,2 A,2 A,2 | A,8 || x6 G,2 | (G,2 A,2) =B,4 || %14
 x8 | x8 || x8 |] %17
V:6
 x8 | x8 || x8 | x8 || x8 | x8 || x8 | x8 ||[M:4/4] G,,2 =B,,2 D,2 G,2 | G,4 G,4 || %10
 G,2 G,2 G,2 G,2 | ^F,8 || G,2 =F,2 =E,2 D,2 | C,4 =B,,4 || A,,2 G,,2 D,2 D,2 | G,,8 || C,4 G,,4 |] %17

